!!!COM: Beethoven
!!!OTL: Zehn Variationen uber "la stessa, la stessissima" aus "Falstaff" von A. Salieri
!!!Variation: Variation 2 b
**function	**harm	**kern	**kern
*	*	*staff2	*staff1
*	*	*clefF4	*clefG2
*tb16	*	*k[b-e-]	*k[b-e-]
*Bb:	*Bb:	*Bb:	*Bb:
*M4/4	*M4/4	*M4/4	*M4/4
=	=	=47	=47
*	*	*	*^
1D	1V	[1FF	16FLL	(4F
.	.	.	16c	.
.	.	.	16f	.
.	.	.	16cJJ	.
.	.	.	16GLL	4G
.	.	.	16c	.
.	.	.	16f	.
.	.	.	16cJJ	.
.	.	.	(16G#LL	4G#
.	.	.	16c)	.
.	.	.	16f	.
.	.	.	16cJJ	.
.	.	.	16ALL	4A)
.	.	.	16c	.
.	.	.	16f	.
.	.	.	16cJJ	.
=	=	=48	=48	=48
2D	2viio/V	1FF]	16B-LL	(4B-
.	.	.	16e	.
.	.	.	16f	.
.	.	.	16eJJ	.
.	.	.	16GLL	4G
.	.	.	16e	.
.	.	.	16f	.
.	.	.	16eJJ	.
2D	2V7	.	16cLL	4c
.	.	.	16e-	.
.	.	.	16f	.
.	.	.	16e-JJ	.
.	.	.	16ALL	4A)
.	.	.	16e-	.
.	.	.	16f	.
.	.	.	16e-JJ	.
=	=	=49	=49	=49
1D	1I	1BB-	(4f	16fLL
.	.	.	.	16B-
.	.	.	.	16d
.	.	.	.	16B-JJ
.	.	.	4g	16gLL
.	.	.	.	16B-
.	.	.	.	16d
.	.	.	.	16B-JJ
.	.	.	4a	16aLL
.	.	.	.	16B-
.	.	.	.	16d
.	.	.	.	16B-JJ
.	.	.	4b-)	16b-LL
.	.	.	.	16B-
.	.	.	.	16d
.	.	.	.	16B-JJ
=	=	=50	=50	=50
*	*	*^	*	*
1D	1V7	(4F	1F	(4b	16bLL
.	.	.	.	.	16e-
.	.	.	.	.	16f
.	.	.	.	.	16e-JJ
.	.	4G	.	[4cc)	16ccLL
.	.	.	.	.	16e-
.	.	.	.	.	16f
.	.	.	.	.	16e-JJ
.	.	4G#	.	4cc]	16r
.	.	.	.	.	16e-LL
.	.	.	.	.	16f
.	.	.	.	.	16e-JJ
.	.	4A)	.	4cc	16ccLL
.	.	.	.	.	16e-
.	.	.	.	.	16f
.	.	.	.	.	16e-JJ
=	=	=51	=51	=51	=51
1T	1I	1B-	1BB- 1F	(4b-	16b-LL
.	.	.	.	.	16d
.	.	.	.	.	16f
.	.	.	.	.	16dJJ
.	.	.	.	4cc	16ccLL
.	.	.	.	.	16d
.	.	.	.	.	16f
.	.	.	.	.	16dJJ
.	.	.	.	4cc#	16cc#LL
.	.	.	.	.	16d
.	.	.	.	.	16f
.	.	.	.	.	16dJJ
.	.	.	.	4dd)	16ddLL
.	.	.	.	.	16d
.	.	.	.	.	16f
.	.	.	.	.	16dJJ
=	=	=52	=52	=52	=52
1T	1V7	(4FF	1FF 1F	(2.ee-	16ee-LL
.	.	.	.	.	16e-
.	.	.	.	.	16f
.	.	.	.	.	16e-JJ
.	.	4GG	.	.	16r
.	.	.	.	.	16e-LL
.	.	.	.	.	16f
.	.	.	.	.	16e-JJ
.	.	4GG#	.	.	16r
.	.	.	.	.	16e-LL
.	.	.	.	.	16f
.	.	.	.	.	16e-JJ
.	.	4AA)	.	4cc)	16ccLL
.	.	.	.	.	16e-
.	.	.	.	.	16f
.	.	.	.	.	16e-JJ
*	*	*v	*v	*	*
*	*	*	*v	*v
=	=	=53	=53
1T	1I	4BB-	16b-LL
.	.	.	16dd
.	.	.	16b-
.	.	.	16fJJ
.	.	4r	16dLL
.	.	.	16B-
.	.	.	16F
.	.	.	16DJJ
.	.	4BBB- 4BB-	2r
.	.	4r	.
=	=	=	=
*-	*-	*-	*-
